!!!OTL: Ganji shang zishan
!!!ARE: Asia, China,ÿLiaoning Shenyang
!! III, 251
!!!SCT: C1750
!!!YEM: Copyright 1995, estate of Helmut Schaffrath.
**kern
*ICvox
*Ivox
*M2/4
*k[b-]
*F:
{8g
8e
8d
8d
=1
8g
8e
8d
8d
=2
8g
8e
8d
8d
=3
8g
8e
8d
8d}
=4
{8r
16dd
16dd
8dd
8dd
=5
8.a
16cc
8a
8cc
=6
8dd
4dd
8ee
=7
16dd
16ff
16dd
16cc
4a}
=8
{8dd
8a
8cc
8a
=9
8.g
16a
8cc
16cc
16a
=10
8.g
16a
8cc
16cc
16a
=11
8.g
16a
4cc}
=12
{8r
16dd
16ff
8dd
8cc
=13
16dd
16ff
8cc#
4a}
=14
{8r
8a
8a
8ee
=15
8dd
16dd
16ff
8cc#
8a
=16
8g
16a
16cc
16a
16g
16g
16e
=17
2d}
=18
{8.a
16g
16f
16g
16a
16cc
=19
2g}
=20
{8r
8a
8a
8ee
=21
8dd
16dd
16ff
8cc#
8a
=22
8g
16a
16cc
16a
16g
16g
16e
=23
2d}
==
!!!AGN: Xiaodiao, Shangzishan diao
!!!AMT: simple duple
!!!AIN: vox
!!!EED: Helmut Schaffrath
!!!EEV: 1.0
*-
